; generated by PrusaSlicer 2.2.0 on 2020-09-25 at 01:27:44 UTC

; 

; external perimeters extrusion width = 0.25mm
; perimeters extrusion width = 0.25mm
; infill extrusion width = 0.25mm
; solid infill extrusion width = 0.25mm
; top infill extrusion width = 0.25mm
; first layer extrusion width = 0.30mm

M73 P0 R31
M73 Q0 S31
M201 X1000 Y1000 Z200 E5000 ; sets maximum accelerations, mm/sec^2
M203 X200 Y200 Z12 E120 ; sets maximum feedrates, mm/sec
M204 P1250 R1250 T1250 ; sets acceleration (P, T) and retract acceleration (R), mm/sec^2
M205 X8.00 Y8.00 Z0.40 E4.50 ; sets the jerk limits, mm/sec
M205 S0 T0 ; sets the minimum extruding and travel feed rate, mm/sec
M107
M862.3 P "MK3S" ; printer model check
M862.1 P0.25 ; nozzle diameter check
M115 U3.9.0 ; tell printer latest fw version
G90 ; use absolute coordinates
M83 ; extruder relative mode
M104 S215 ; set extruder temp
M140 S60 ; set bed temp
M190 S60 ; wait for bed temp
M109 S215 ; wait for extruder temp
G28 W ; home all without mesh bed level
G80 ; mesh bed leveling
G1 Y-3.0 F1000.0 ; go outside print area
G92 E0.0
G1 X60.0 E9.0 F1000.0 ; intro line
M73 Q0 S31
M73 P0 R31
G1 X100.0 E12.5 F1000.0 ; intro line
G92 E0.0
M221 S95
G21 ; set units to millimeters
G90 ; use absolute coordinates
M83 ; use relative distances for extrusion
M900 K0.06 ; Filament gcode LA 1.5
M900 K30 ; Filament gcode LA 1.0
;BEFORE_LAYER_CHANGE
G92 E0.0
;0.1


G1 E-0.80000 F2100.00000
G1 Z0.600 F10800.000
;AFTER_LAYER_CHANGE
;0.1
G1 X162.325 Y83.940
G1 Z0.100
G1 E0.80000 F2100.00000
M204 S500
G1 F1200.000
G1 X162.553 Y84.879 E0.01119
G1 X162.553 Y105.107 E0.23425
G1 X162.407 Y107.252 E0.02490
G1 X162.239 Y108.442 E0.01392
G1 X161.768 Y110.593 E0.02550
G1 X161.413 Y111.782 E0.01438
G1 X161.027 Y112.866 E0.01333
G1 X160.161 Y114.835 E0.02490
G1 X158.988 Y116.914 E0.02765
G1 X157.754 Y118.671 E0.02486
G1 X156.999 Y119.595 E0.01383
G1 X156.196 Y120.479 E0.01383
G1 X154.638 Y121.962 E0.02490
G1 X152.755 Y123.428 E0.02765
G1 X150.936 Y124.576 E0.02490
G1 X149.886 Y125.136 E0.01378
G1 X148.801 Y125.644 E0.01387
G1 X146.796 Y126.409 E0.02486
G1 X144.527 Y127.030 E0.02723
G1 X142.368 Y127.395 E0.02536
G1 X141.160 Y127.509 E0.01406
G1 X139.824 Y127.551 E0.01547
G1 X139.017 Y127.361 E0.00961
G1 X94.046 Y106.056 E0.57626
G1 X92.932 Y105.380 E0.01509
G1 X91.927 Y104.620 E0.01459
G1 X91.004 Y103.763 E0.01459
G1 X90.142 Y102.779 E0.01515
G1 X89.156 Y101.333 E0.02026
G1 X88.574 Y100.212 E0.01463
G1 X88.095 Y99.000 E0.01509
G1 X87.748 Y97.756 E0.01495
G1 X87.538 Y96.558 E0.01408
G1 X87.446 Y95.322 E0.01435
G1 X87.476 Y94.062 E0.01459
G1 X87.633 Y92.816 E0.01454
G1 X87.911 Y91.600 E0.01445
G1 X88.309 Y90.413 E0.01450
G1 X88.824 Y89.272 E0.01450
G1 X89.450 Y88.187 E0.01451
G1 X90.181 Y87.171 E0.01449
G1 X91.009 Y86.232 E0.01451
G1 X91.926 Y85.381 E0.01449
G1 X92.921 Y84.627 E0.01445
G1 X93.992 Y83.972 E0.01454
G1 X95.120 Y83.429 E0.01450
G1 X96.293 Y83.002 E0.01445
G1 X97.487 Y82.697 E0.01427
G1 X98.744 Y82.506 E0.01473
G1 X99.990 Y82.443 E0.01445
G1 X160.002 Y82.443 E0.69496
G1 X160.951 Y82.627 E0.01119
G1 X161.763 Y83.149 E0.01119
G1 X162.304 Y83.909 E0.01080
M204 S1000
G1 X162.077 Y84.067 F10800.000
M204 S500
G1 F1200.000
G1 X162.275 Y84.911 E0.01004
G1 X162.275 Y105.098 E0.23377
G1 X162.130 Y107.226 E0.02469
G1 X161.965 Y108.395 E0.01367
G1 X161.498 Y110.526 E0.02527
G1 X161.145 Y111.704 E0.01424
G1 X160.384 Y113.697 E0.02469
G1 X159.888 Y114.759 E0.01359
G1 X159.335 Y115.794 E0.01359
G1 X158.197 Y117.599 E0.02470
G1 X156.754 Y119.453 E0.02721
G1 X155.979 Y120.303 E0.01333
G1 X154.452 Y121.755 E0.02440
G1 X152.601 Y123.196 E0.02716
G1 X150.797 Y124.335 E0.02470
G1 X149.759 Y124.889 E0.01363
G1 X148.692 Y125.387 E0.01364
G1 X146.703 Y126.147 E0.02465
G1 X144.462 Y126.759 E0.02690
G1 X142.332 Y127.119 E0.02501
G1 X141.153 Y127.230 E0.01372
G1 X139.858 Y127.274 E0.01501
G1 X139.124 Y127.104 E0.00873
G1 X94.173 Y105.808 E0.57601
G1 X93.086 Y105.148 E0.01474
G1 X92.107 Y104.406 E0.01422
G1 X91.204 Y103.569 E0.01426
G1 X90.364 Y102.611 E0.01476
G1 X89.394 Y101.188 E0.01994
G1 X88.827 Y100.095 E0.01426
G1 X88.360 Y98.911 E0.01474
G1 X88.018 Y97.689 E0.01469
G1 X87.815 Y96.524 E0.01370
G1 X87.724 Y95.303 E0.01418
G1 X87.754 Y94.083 E0.01413
G1 X87.907 Y92.865 E0.01422
G1 X88.179 Y91.675 E0.01413
G1 X88.568 Y90.515 E0.01418
G1 X89.072 Y89.399 E0.01418
G1 X89.686 Y88.336 E0.01422
G1 X90.398 Y87.345 E0.01413
G1 X91.208 Y86.427 E0.01418
G1 X92.105 Y85.595 E0.01418
G1 X93.081 Y84.855 E0.01418
G1 X94.125 Y84.217 E0.01418
G1 X95.228 Y83.686 E0.01418
G1 X96.378 Y83.267 E0.01418
G1 X97.554 Y82.967 E0.01405
G1 X98.775 Y82.783 E0.01430
G1 X99.990 Y82.721 E0.01409
G1 X160.002 Y82.721 E0.69496
G1 X160.853 Y82.888 E0.01004
G1 X161.578 Y83.358 E0.01000
G1 X162.056 Y84.036 E0.00961
M204 S1000
G1 F8640.000
G1 X162.275 Y84.911 E-0.20832
G1 X162.275 Y87.301 E-0.55168
G1 E-0.04000 F2100.00000
G1 Z0.700 F10800.000
G1 X101.193 Y109.596
G1 Z0.100
G1 E0.80000 F2100.00000
M204 S500
G1 F1200.000
G1 X99.970 Y109.596 E0.01417
G1 X99.228 Y109.576 E0.00859
G1 X98.518 Y109.521 E0.00826
G1 X97.817 Y109.432 E0.00818
G1 X97.092 Y109.303 E0.00853
G1 X96.368 Y109.137 E0.00860
G1 X95.705 Y108.950 E0.00798
G1 X95.051 Y108.732 E0.00798
G1 X94.270 Y108.425 E0.00971
G1 X93.655 Y108.145 E0.00782
G1 X93.059 Y107.841 E0.00775
G1 X92.364 Y107.440 E0.00928
G1 X91.790 Y107.069 E0.00792
G1 X91.236 Y106.673 E0.00788
G1 X90.619 Y106.183 E0.00913
G1 X90.066 Y105.695 E0.00853
G1 X89.544 Y105.186 E0.00845
G1 X89.070 Y104.675 E0.00807
G1 X88.586 Y104.100 E0.00870
G1 X88.125 Y103.488 E0.00887
G1 X87.729 Y102.905 E0.00816
G1 X87.358 Y102.297 E0.00825
G1 X86.996 Y101.632 E0.00877
G1 X86.697 Y101.009 E0.00800
G1 X86.427 Y100.372 E0.00801
G1 X86.153 Y99.619 E0.00928
G1 X85.948 Y98.952 E0.00809
G1 X85.775 Y98.276 E0.00808
G1 X85.629 Y97.563 E0.00843
G1 X85.519 Y96.842 E0.00844
G1 X85.445 Y96.111 E0.00851
G1 X85.408 Y95.384 E0.00843
G1 X85.407 Y94.657 E0.00842
G1 X85.442 Y93.930 E0.00843
G1 X85.513 Y93.206 E0.00843
G1 X85.621 Y92.486 E0.00843
G1 X85.764 Y91.772 E0.00843
G1 X85.943 Y91.066 E0.00843
G1 X86.156 Y90.371 E0.00843
G1 X86.404 Y89.687 E0.00843
G1 X86.686 Y89.016 E0.00843
G1 X87.001 Y88.359 E0.00843
G1 X87.348 Y87.720 E0.00843
G1 X87.726 Y87.098 E0.00842
G1 X88.136 Y86.495 E0.00844
G1 X88.581 Y85.907 E0.00854
G1 X89.069 Y85.326 E0.00878
G1 X89.564 Y84.794 E0.00843
G1 X90.086 Y84.286 E0.00843
G1 X90.633 Y83.805 E0.00843
G1 X91.202 Y83.352 E0.00843
G1 X91.794 Y82.929 E0.00843
G1 X92.406 Y82.535 E0.00843
G1 X93.036 Y82.172 E0.00843
G1 X93.684 Y81.840 E0.00843
G1 X94.348 Y81.542 E0.00842
G1 X95.025 Y81.278 E0.00842
G1 X95.715 Y81.047 E0.00843
G1 X96.415 Y80.851 E0.00842
G1 X97.117 Y80.691 E0.00834
G1 X97.819 Y80.568 E0.00825
G1 X98.520 Y80.479 E0.00817
G1 X99.243 Y80.424 E0.00841
G1 X99.970 Y80.404 E0.00842
G1 X160.464 Y80.415 E0.70053
M204 S1000
M204 S500
G1 X161.441 Y80.609 E0.01154
G1 X162.370 Y81.031 E0.01183
G1 X163.484 Y81.978 E0.01693
G1 X163.956 Y82.658 E0.00958
G1 X164.594 Y84.457 E0.02211
G1 X164.594 Y105.071 E0.23872
G1 X164.542 Y106.286 E0.01408
G1 X164.427 Y107.538 E0.01455
G1 X164.248 Y108.790 E0.01465
G1 X164.010 Y110.010 E0.01440
G1 X163.718 Y111.197 E0.01415
G1 X163.365 Y112.374 E0.01423
G1 X162.943 Y113.564 E0.01462
G1 X162.490 Y114.667 E0.01381
G1 X161.984 Y115.748 E0.01382
G1 X161.385 Y116.879 E0.01483
G1 X160.727 Y117.979 E0.01484
G1 X160.027 Y119.027 E0.01460
G1 X159.325 Y119.973 E0.01364
G1 X158.579 Y120.886 E0.01365
G1 X157.716 Y121.841 E0.01491
G1 X156.804 Y122.750 E0.01491
G1 X155.889 Y123.576 E0.01428
G1 X154.955 Y124.340 E0.01397
G1 X153.995 Y125.050 E0.01382
G1 X152.908 Y125.773 E0.01512
G1 X151.883 Y126.383 E0.01381
G1 X150.837 Y126.940 E0.01372
G1 X149.681 Y127.485 E0.01480
G1 X148.502 Y127.968 E0.01475
G1 X147.309 Y128.387 E0.01464
G1 X146.167 Y128.727 E0.01380
G1 X145.016 Y129.010 E0.01372
G1 X143.777 Y129.252 E0.01462
G1 X142.532 Y129.429 E0.01457
G1 X141.277 Y129.544 E0.01459
G1 X139.345 Y129.562 E0.02238
G1 X137.583 Y128.938 E0.02164
G1 X136.697 Y128.220 E0.01321
G1 X136.011 Y127.347 E0.01285
G1 X135.641 Y125.916 E0.01712
M204 S1000
G1 X135.459 Y125.214 F10800.000
M204 S500
G1 F1200.000
G1 X131.420 Y109.596 E0.18681
G1 X102.494 Y109.596 E0.33498
M204 S1000
G1 X101.906 Y109.317 F10800.000
M204 S500
G1 F1200.000
G1 X131.636 Y109.317 E0.34429
G1 X135.775 Y125.363 E0.19190
M204 S1000
G1 X135.956 Y126.065 F10800.000
M204 S500
G1 F1200.000
G1 X136.248 Y127.198 E0.01355
G1 X136.906 Y128.035 E0.01233
G1 X137.739 Y128.706 E0.01238
G1 X139.413 Y129.291 E0.02053
G1 X141.267 Y129.266 E0.02148
G1 X142.503 Y129.152 E0.01437
G1 X143.734 Y128.976 E0.01440
G1 X144.953 Y128.739 E0.01438
G1 X146.091 Y128.459 E0.01357
G1 X147.227 Y128.121 E0.01372
G1 X148.406 Y127.706 E0.01448
G1 X149.572 Y127.228 E0.01459
G1 X150.709 Y126.693 E0.01455
G1 X151.743 Y126.142 E0.01357
G1 X152.762 Y125.536 E0.01373
G1 X153.832 Y124.824 E0.01488
G1 X154.786 Y124.118 E0.01375
G1 X155.710 Y123.363 E0.01382
G1 X156.615 Y122.545 E0.01412
G1 X157.516 Y121.646 E0.01475
G1 X158.366 Y120.707 E0.01467
G1 X159.103 Y119.805 E0.01349
G1 X159.801 Y118.864 E0.01356
G1 X160.493 Y117.827 E0.01444
G1 X161.140 Y116.746 E0.01459
G1 X161.733 Y115.626 E0.01467
G1 X162.233 Y114.558 E0.01366
G1 X162.684 Y113.461 E0.01373
G1 X163.099 Y112.291 E0.01438
G1 X163.448 Y111.127 E0.01407
G1 X163.739 Y109.947 E0.01407
G1 X163.974 Y108.740 E0.01424
G1 X164.151 Y107.502 E0.01449
G1 X164.264 Y106.271 E0.01431
G1 X164.315 Y105.068 E0.01394
G1 X164.316 Y84.482 E0.23840
G1 X163.700 Y82.770 E0.02107
G1 X163.289 Y82.178 E0.00834
G1 X162.236 Y81.276 E0.01606
G1 X161.369 Y80.878 E0.01104
G1 X160.450 Y80.693 E0.01087
G1 X99.972 Y80.683 E0.70035
M204 S1000
M204 S500
G1 X99.254 Y80.702 E0.00831
G1 X98.551 Y80.756 E0.00817
G1 X97.858 Y80.844 E0.00809
G1 X97.169 Y80.965 E0.00810
G1 X96.481 Y81.122 E0.00818
G1 X95.793 Y81.314 E0.00826
G1 X95.117 Y81.541 E0.00826
G1 X94.453 Y81.800 E0.00826
G1 X93.802 Y82.093 E0.00826
G1 X93.166 Y82.418 E0.00827
G1 X92.548 Y82.774 E0.00827
G1 X91.947 Y83.161 E0.00827
G1 X91.367 Y83.577 E0.00827
G1 X90.809 Y84.021 E0.00827
G1 X90.273 Y84.493 E0.00827
G1 X89.761 Y84.991 E0.00827
G1 X89.275 Y85.514 E0.00827
G1 X88.801 Y86.078 E0.00853
G1 X88.365 Y86.655 E0.00838
G1 X87.962 Y87.246 E0.00828
G1 X87.591 Y87.856 E0.00826
G1 X87.250 Y88.483 E0.00827
G1 X86.941 Y89.127 E0.00827
G1 X86.665 Y89.785 E0.00827
G1 X86.421 Y90.456 E0.00827
G1 X86.212 Y91.138 E0.00826
G1 X86.036 Y91.830 E0.00827
G1 X85.896 Y92.530 E0.00827
G1 X85.790 Y93.236 E0.00827
G1 X85.720 Y93.947 E0.00827
G1 X85.685 Y94.660 E0.00827
G1 X85.686 Y95.373 E0.00826
G1 X85.722 Y96.086 E0.00827
G1 X85.795 Y96.804 E0.00835
G1 X85.903 Y97.511 E0.00828
G1 X86.046 Y98.210 E0.00827
G1 X86.217 Y98.879 E0.00800
G1 X86.418 Y99.534 E0.00793
G1 X86.685 Y100.267 E0.00903
G1 X86.949 Y100.891 E0.00785
G1 X87.246 Y101.508 E0.00792
G1 X87.601 Y102.161 E0.00861
G1 X87.961 Y102.752 E0.00802
G1 X88.353 Y103.329 E0.00808
G1 X88.806 Y103.929 E0.00871
G1 X89.281 Y104.493 E0.00853
G1 X89.746 Y104.993 E0.00791
G1 X90.253 Y105.489 E0.00822
G1 X90.795 Y105.967 E0.00837
G1 X91.401 Y106.449 E0.00896
G1 X91.944 Y106.837 E0.00773
G1 X92.507 Y107.201 E0.00776
G1 X93.189 Y107.594 E0.00912
G1 X93.779 Y107.896 E0.00768
G1 X94.382 Y108.170 E0.00767
G1 X95.142 Y108.469 E0.00946
G1 X95.784 Y108.683 E0.00783
G1 X96.433 Y108.866 E0.00782
G1 X97.144 Y109.030 E0.00844
G1 X97.855 Y109.156 E0.00837
G1 X98.549 Y109.244 E0.00810
G1 X99.246 Y109.298 E0.00810
G1 X100.605 Y109.317 E0.01573
M204 S1000
G1 X100.017 Y109.039 F10800.000
M204 S500
G1 F1200.000
G1 X99.264 Y109.020 E0.00872
G1 X98.581 Y108.967 E0.00794
G1 X97.894 Y108.880 E0.00802
G1 X97.196 Y108.756 E0.00820
G1 X96.499 Y108.596 E0.00828
G1 X95.862 Y108.416 E0.00766
G1 X95.234 Y108.206 E0.00767
G1 X94.494 Y107.915 E0.00921
G1 X93.903 Y107.646 E0.00751
G1 X93.319 Y107.348 E0.00760
G1 X92.649 Y106.961 E0.00896
G1 X92.098 Y106.605 E0.00760
G1 X91.566 Y106.224 E0.00758
G1 X90.971 Y105.751 E0.00880
G1 X90.440 Y105.283 E0.00820
G1 X89.947 Y104.801 E0.00798
G1 X89.491 Y104.311 E0.00776
G1 X89.026 Y103.758 E0.00836
G1 X88.582 Y103.170 E0.00854
G1 X88.197 Y102.604 E0.00792
G1 X87.844 Y102.025 E0.00786
G1 X87.495 Y101.384 E0.00844
G1 X87.205 Y100.780 E0.00776
G1 X86.943 Y100.162 E0.00777
G1 X86.683 Y99.449 E0.00879
G1 X86.484 Y98.801 E0.00785
G1 X86.316 Y98.145 E0.00784
G1 X86.177 Y97.458 E0.00811
G1 X86.071 Y96.765 E0.00812
G1 X86.000 Y96.062 E0.00819
G1 X85.964 Y95.363 E0.00811
G1 X85.964 Y94.663 E0.00810
G1 X85.998 Y93.964 E0.00810
G1 X86.067 Y93.267 E0.00811
G1 X86.171 Y92.575 E0.00811
G1 X86.309 Y91.889 E0.00811
G1 X86.481 Y91.210 E0.00811
G1 X86.687 Y90.541 E0.00810
G1 X86.925 Y89.883 E0.00810
G1 X87.197 Y89.238 E0.00811
G1 X87.500 Y88.607 E0.00811
G1 X87.834 Y87.992 E0.00811
G1 X88.198 Y87.394 E0.00810
G1 X88.593 Y86.815 E0.00812
G1 X89.021 Y86.249 E0.00822
G1 X89.481 Y85.701 E0.00829
G1 X89.958 Y85.188 E0.00811
G1 X90.460 Y84.700 E0.00811
G1 X90.985 Y84.237 E0.00811
G1 X91.533 Y83.801 E0.00811
G1 X92.101 Y83.393 E0.00811
G1 X92.690 Y83.014 E0.00811
G1 X93.296 Y82.664 E0.00811
G1 X93.919 Y82.346 E0.00811
G1 X94.557 Y82.059 E0.00810
G1 X95.208 Y81.804 E0.00810
G1 X95.872 Y81.581 E0.00810
G1 X96.546 Y81.392 E0.00810
G1 X97.221 Y81.239 E0.00802
G1 X97.903 Y81.119 E0.00802
G1 X98.583 Y81.033 E0.00794
G1 X99.272 Y80.980 E0.00801
G1 X99.974 Y80.961 E0.00813
G1 X160.435 Y80.972 E0.70016
M204 S1000
M204 S500
G1 X161.297 Y81.148 E0.01019
G1 X162.101 Y81.520 E0.01026
G1 X163.094 Y82.377 E0.01519
G1 X163.445 Y82.882 E0.00712
G1 X164.037 Y84.506 E0.02002
G1 X164.037 Y105.065 E0.23808
G1 X163.986 Y106.256 E0.01379
G1 X163.874 Y107.473 E0.01415
G1 X163.700 Y108.690 E0.01424
G1 X163.468 Y109.884 E0.01408
G1 X163.178 Y111.057 E0.01399
G1 X162.834 Y112.207 E0.01391
G1 X162.425 Y113.359 E0.01414
G1 X161.980 Y114.443 E0.01358
G1 X161.483 Y115.505 E0.01358
G1 X160.896 Y116.612 E0.01451
G1 X160.256 Y117.681 E0.01443
G1 X159.575 Y118.701 E0.01420
G1 X158.885 Y119.631 E0.01341
G1 X158.152 Y120.528 E0.01341
G1 X157.312 Y121.457 E0.01450
G1 X156.425 Y122.341 E0.01450
G1 X155.531 Y123.149 E0.01396
G1 X154.613 Y123.900 E0.01374
G1 X153.669 Y124.598 E0.01359
G1 X152.617 Y125.298 E0.01464
G1 X151.610 Y125.898 E0.01357
G1 X150.581 Y126.445 E0.01349
G1 X149.463 Y126.972 E0.01431
G1 X148.311 Y127.445 E0.01443
G1 X147.144 Y127.855 E0.01432
G1 X146.021 Y128.189 E0.01357
G1 X144.890 Y128.468 E0.01349
G1 X143.691 Y128.701 E0.01414
G1 X142.474 Y128.875 E0.01424
G1 X141.257 Y128.987 E0.01415
G1 X139.480 Y129.019 E0.02058
G1 X137.894 Y128.473 E0.01943
G1 X137.115 Y127.850 E0.01155
G1 X136.485 Y127.049 E0.01181
G1 X136.270 Y126.214 E0.00998
M204 S1000
G1 X136.090 Y125.512 F10800.000
M204 S500
G1 F1200.000
G1 X131.852 Y109.039 E0.19698
G1 X101.318 Y109.039 E0.35360
M204 S1000
G1 X100.730 Y108.760 F10800.000
M204 S500
G1 F1200.000
G1 X132.068 Y108.760 E0.36291
M73 Q3 S30
G1 X136.405 Y125.662 E0.20206
M73 P3 R30
M204 S1000
G1 X136.585 Y126.363 F10800.000
M204 S500
G1 F1200.000
G1 X136.722 Y126.900 E0.00642
G1 X137.302 Y127.643 E0.01091
G1 X138.048 Y128.240 E0.01107
G1 X139.546 Y128.748 E0.01831
G1 X141.245 Y128.709 E0.01969
G1 X142.444 Y128.598 E0.01395
G1 X143.641 Y128.427 E0.01400
G1 X144.827 Y128.196 E0.01399
G1 X145.951 Y127.920 E0.01341
G1 X147.061 Y127.589 E0.01341
G1 X148.215 Y127.183 E0.01416
G1 X149.348 Y126.718 E0.01418
G1 X150.453 Y126.198 E0.01415
G1 X151.476 Y125.654 E0.01341
G1 X152.471 Y125.061 E0.01342
G1 X153.506 Y124.372 E0.01440
G1 X154.444 Y123.678 E0.01351
G1 X155.352 Y122.936 E0.01358
G1 X156.236 Y122.137 E0.01380
G1 X157.113 Y121.262 E0.01434
G1 X157.939 Y120.349 E0.01426
G1 X158.668 Y119.457 E0.01334
G1 X159.349 Y118.538 E0.01325
G1 X160.022 Y117.529 E0.01404
G1 X160.655 Y116.472 E0.01427
G1 X161.232 Y115.384 E0.01426
G1 X161.723 Y114.334 E0.01342
G1 X162.166 Y113.256 E0.01350
G1 X162.568 Y112.124 E0.01391
G1 X162.911 Y110.980 E0.01383
G1 X163.196 Y109.820 E0.01383
G1 X163.426 Y108.641 E0.01392
G1 X163.597 Y107.444 E0.01400
G1 X163.708 Y106.240 E0.01399
G1 X163.758 Y105.062 E0.01365
G1 X163.759 Y84.531 E0.23776
