; generated by PrusaSlicer 2.2.0 on 2020-09-25 at 00:59:57 UTC

; 

; external perimeters extrusion width = 0.25mm
; perimeters extrusion width = 0.25mm
; infill extrusion width = 0.25mm
; solid infill extrusion width = 0.25mm
; top infill extrusion width = 0.25mm
; first layer extrusion width = 0.30mm

M73 P0 R13
M73 Q0 S13
M201 X1000 Y1000 Z200 E5000 ; sets maximum accelerations, mm/sec^2
M203 X200 Y200 Z12 E120 ; sets maximum feedrates, mm/sec
M204 P1250 R1250 T1250 ; sets acceleration (P, T) and retract acceleration (R), mm/sec^2
M205 X8.00 Y8.00 Z0.40 E4.50 ; sets the jerk limits, mm/sec
M205 S0 T0 ; sets the minimum extruding and travel feed rate, mm/sec
M107
M862.3 P "MK3S" ; printer model check
M862.1 P0.25 ; nozzle diameter check
M115 U3.9.0 ; tell printer latest fw version
G90 ; use absolute coordinates
M83 ; extruder relative mode
M104 S215 ; set extruder temp
M140 S60 ; set bed temp
M190 S60 ; wait for bed temp
M109 S215 ; wait for extruder temp
G28 W ; home all without mesh bed level
G80 ; mesh bed leveling
G1 Y-3.0 F1000.0 ; go outside print area
G92 E0.0
G1 X60.0 E9.0 F1000.0 ; intro line
M73 Q0 S13
M73 P0 R13
G1 X100.0 E12.5 F1000.0 ; intro line
G92 E0.0
M221 S95
G21 ; set units to millimeters
G90 ; use absolute coordinates
M83 ; use relative distances for extrusion
M900 K0.06 ; Filament gcode LA 1.5
M900 K30 ; Filament gcode LA 1.0
;BEFORE_LAYER_CHANGE
G92 E0.0
;0.1


G1 E-0.80000 F2100.00000
G1 Z0.600 F10800.000
;AFTER_LAYER_CHANGE
;0.1
G1 X162.325 Y83.940
G1 Z0.100
G1 E0.80000 F2100.00000
M204 S500
G1 F1200.000
G1 X162.553 Y84.879 E0.01119
G1 X162.553 Y105.107 E0.23425
G1 X162.407 Y107.252 E0.02490
G1 X162.240 Y108.438 E0.01387
G1 X161.768 Y110.593 E0.02554
G1 X161.413 Y111.782 E0.01438
G1 X161.027 Y112.866 E0.01333
G1 X160.161 Y114.835 E0.02490
G1 X158.988 Y116.914 E0.02765
G1 X157.754 Y118.671 E0.02486
G1 X156.999 Y119.595 E0.01383
G1 X156.196 Y120.479 E0.01383
G1 X154.638 Y121.962 E0.02490
G1 X152.755 Y123.428 E0.02765
G1 X150.936 Y124.576 E0.02490
G1 X149.883 Y125.138 E0.01383
G1 X148.801 Y125.644 E0.01383
G1 X146.796 Y126.409 E0.02486
G1 X144.527 Y127.030 E0.02723
G1 X142.368 Y127.395 E0.02536
G1 X141.160 Y127.509 E0.01406
G1 X139.824 Y127.551 E0.01547
G1 X139.017 Y127.361 E0.00961
G1 X94.042 Y106.054 E0.57631
G1 X92.929 Y105.378 E0.01509
G1 X91.927 Y104.620 E0.01454
G1 X91.004 Y103.763 E0.01459
G1 X90.142 Y102.779 E0.01515
G1 X89.156 Y101.333 E0.02026
G1 X88.574 Y100.212 E0.01463
G1 X88.095 Y99.000 E0.01509
G1 X87.748 Y97.756 E0.01495
G1 X87.538 Y96.558 E0.01408
G1 X87.445 Y95.310 E0.01450
G1 X87.476 Y94.062 E0.01445
G1 X87.633 Y92.816 E0.01454
G1 X87.911 Y91.600 E0.01445
G1 X88.309 Y90.413 E0.01450
G1 X88.824 Y89.272 E0.01450
G1 X89.452 Y88.184 E0.01454
G1 X90.181 Y87.171 E0.01445
G1 X91.009 Y86.233 E0.01450
G1 X91.926 Y85.381 E0.01450
G1 X92.924 Y84.625 E0.01450
G1 X93.992 Y83.972 E0.01450
G1 X95.120 Y83.429 E0.01450
G1 X96.293 Y83.002 E0.01445
G1 X97.487 Y82.697 E0.01427
G1 X98.744 Y82.506 E0.01473
G1 X99.990 Y82.443 E0.01445
G1 X160.002 Y82.443 E0.69496
G1 X160.951 Y82.627 E0.01119
G1 X161.763 Y83.149 E0.01119
G1 X162.304 Y83.909 E0.01080
M204 S1000
G1 X162.077 Y84.067 F10800.000
M204 S500
G1 F1200.000
G1 X162.275 Y84.911 E0.01004
G1 X162.275 Y105.093 E0.23371
G1 X162.130 Y107.226 E0.02475
G1 X161.965 Y108.395 E0.01367
G1 X161.498 Y110.526 E0.02527
G1 X161.145 Y111.704 E0.01424
G1 X160.385 Y113.697 E0.02469
G1 X159.888 Y114.759 E0.01359
G1 X159.333 Y115.798 E0.01364
G1 X158.197 Y117.599 E0.02465
G1 X156.754 Y119.453 E0.02721
G1 X155.996 Y120.285 E0.01303
G1 X154.452 Y121.755 E0.02469
G1 X152.601 Y123.196 E0.02716
G1 X150.794 Y124.336 E0.02475
G1 X149.759 Y124.889 E0.01359
G1 X148.696 Y125.386 E0.01359
G1 X146.703 Y126.147 E0.02470
G1 X144.462 Y126.759 E0.02690
G1 X142.332 Y127.119 E0.02501
G1 X141.153 Y127.230 E0.01372
G1 X139.854 Y127.274 E0.01505
G1 X139.121 Y127.103 E0.00873
G1 X94.173 Y105.808 E0.57597
G1 X93.086 Y105.148 E0.01474
G1 X92.107 Y104.406 E0.01422
G1 X91.204 Y103.569 E0.01426
G1 X90.364 Y102.611 E0.01476
G1 X89.394 Y101.188 E0.01994
G1 X88.827 Y100.095 E0.01426
G1 X88.360 Y98.911 E0.01474
G1 X88.018 Y97.689 E0.01469
G1 X87.815 Y96.524 E0.01370
G1 X87.724 Y95.303 E0.01418
G1 X87.754 Y94.083 E0.01413
G1 X87.907 Y92.865 E0.01422
G1 X88.179 Y91.675 E0.01413
G1 X88.568 Y90.515 E0.01418
G1 X89.072 Y89.399 E0.01418
G1 X89.686 Y88.336 E0.01422
G1 X90.398 Y87.345 E0.01413
G1 X91.208 Y86.427 E0.01418
G1 X92.105 Y85.595 E0.01418
G1 X93.081 Y84.855 E0.01417
G1 X94.125 Y84.217 E0.01418
G1 X95.228 Y83.686 E0.01418
G1 X96.378 Y83.267 E0.01418
G1 X97.554 Y82.967 E0.01405
G1 X98.775 Y82.783 E0.01430
G1 X99.990 Y82.721 E0.01409
G1 X160.002 Y82.721 E0.69496
G1 X160.853 Y82.888 E0.01004
G1 X161.578 Y83.358 E0.01000
G1 X162.056 Y84.036 E0.00961
M204 S1000
G1 F8640.000
G1 X162.275 Y84.911 E-0.20832
G1 X162.275 Y87.301 E-0.55168
G1 E-0.04000 F2100.00000
G1 Z0.700 F10800.000
G1 X101.193 Y109.596
G1 Z0.100
G1 E0.80000 F2100.00000
M204 S500
G1 F1200.000
G1 X99.969 Y109.596 E0.01417
G1 X99.220 Y109.575 E0.00868
G1 X98.515 Y109.520 E0.00819
G1 X97.808 Y109.430 E0.00826
G1 X97.075 Y109.300 E0.00862
G1 X96.348 Y109.132 E0.00864
G1 X95.437 Y108.862 E0.01100
G1 X94.326 Y108.448 E0.01373
G1 X93.612 Y108.125 E0.00907
G1 X92.998 Y107.808 E0.00800
G1 X92.397 Y107.460 E0.00804
G1 X91.774 Y107.058 E0.00859
G1 X91.162 Y106.617 E0.00872
G1 X90.611 Y106.177 E0.00817
G1 X90.050 Y105.681 E0.00867
G1 X89.453 Y105.088 E0.00975
G1 X88.648 Y104.176 E0.01409
G1 X88.111 Y103.470 E0.01027
G1 X87.736 Y102.916 E0.00775
G1 X87.386 Y102.346 E0.00775
G1 X86.998 Y101.635 E0.00938
G1 X86.701 Y101.018 E0.00793
G1 X86.435 Y100.392 E0.00789
G1 X86.157 Y99.631 E0.00938
G1 X85.949 Y98.956 E0.00818
G1 X85.775 Y98.276 E0.00813
G1 X85.630 Y97.564 E0.00841
G1 X85.519 Y96.837 E0.00852
G1 X85.445 Y96.113 E0.00843
G1 X85.408 Y95.386 E0.00843
G1 X85.407 Y94.658 E0.00843
G1 X85.442 Y93.931 E0.00843
G1 X85.513 Y93.207 E0.00843
G1 X85.621 Y92.487 E0.00843
G1 X85.767 Y91.760 E0.00859
G1 X85.950 Y91.039 E0.00861
G1 X86.172 Y90.322 E0.00869
G1 X86.479 Y89.504 E0.01012
G1 X86.988 Y88.385 E0.01423
G1 X87.341 Y87.732 E0.00860
G1 X87.726 Y87.100 E0.00856
G1 X88.135 Y86.497 E0.00844
G1 X88.574 Y85.916 E0.00843
G1 X89.075 Y85.319 E0.00903
G1 X89.705 Y84.655 E0.01060
G1 X90.603 Y83.830 E0.01412
G1 X91.201 Y83.353 E0.00886
G1 X91.794 Y82.929 E0.00844
G1 X92.406 Y82.534 E0.00843
G1 X93.037 Y82.171 E0.00843
G1 X93.685 Y81.840 E0.00843
G1 X94.348 Y81.542 E0.00843
G1 X95.026 Y81.277 E0.00843
G1 X95.716 Y81.046 E0.00843
G1 X96.417 Y80.850 E0.00843
G1 X97.127 Y80.689 E0.00842
G1 X97.821 Y80.567 E0.00817
G1 X98.520 Y80.479 E0.00816
G1 X99.237 Y80.424 E0.00832
G1 X99.970 Y80.404 E0.00850
G1 X160.464 Y80.415 E0.70053
M204 S1000
M204 S500
G1 X161.441 Y80.609 E0.01154
G1 X162.370 Y81.031 E0.01183
G1 X163.484 Y81.978 E0.01693
G1 X163.956 Y82.658 E0.00958
G1 X164.594 Y84.457 E0.02211
G1 X164.594 Y105.071 E0.23872
G1 X164.542 Y106.286 E0.01408
G1 X164.427 Y107.545 E0.01464
G1 X164.247 Y108.794 E0.01461
G1 X163.960 Y110.213 E0.01677
G1 X163.706 Y111.239 E0.01224
G1 X163.363 Y112.382 E0.01382
G1 X162.943 Y113.564 E0.01453
G1 X162.490 Y114.667 E0.01380
G1 X161.988 Y115.741 E0.01373
G1 X161.390 Y116.870 E0.01480
G1 X160.734 Y117.969 E0.01481
G1 X160.064 Y118.974 E0.01398
G1 X159.347 Y119.945 E0.01399
G1 X158.542 Y120.929 E0.01472
G1 X157.756 Y121.798 E0.01356
G1 X157.038 Y122.521 E0.01180
G1 X155.973 Y123.503 E0.01678
G1 X154.985 Y124.316 E0.01482
G1 X153.957 Y125.077 E0.01481
G1 X152.958 Y125.742 E0.01389
G1 X151.934 Y126.355 E0.01382
G1 X150.831 Y126.943 E0.01448
G1 X149.673 Y127.488 E0.01482
G1 X148.488 Y127.973 E0.01483
G1 X147.309 Y128.387 E0.01447
G1 X146.159 Y128.729 E0.01389
G1 X145.001 Y129.013 E0.01381
G1 X143.768 Y129.253 E0.01454
G1 X142.524 Y129.430 E0.01455
G1 X141.275 Y129.544 E0.01452
G1 X139.355 Y129.563 E0.02224
G1 X137.586 Y128.940 E0.02171
G1 X136.697 Y128.220 E0.01325
G1 X136.011 Y127.347 E0.01285
G1 X135.641 Y125.916 E0.01712
M204 S1000
G1 X135.459 Y125.214 F10800.000
M204 S500
G1 F1200.000
G1 X131.420 Y109.596 E0.18681
G1 X102.493 Y109.596 E0.33498
M204 S1000
G1 X101.906 Y109.317 F10800.000
M204 S500
G1 F1200.000
G1 X131.636 Y109.317 E0.34429
G1 X135.775 Y125.363 E0.19190
M204 S1000
G1 X135.956 Y126.065 F10800.000
M204 S500
G1 F1200.000
G1 X136.248 Y127.198 E0.01355
G1 X136.906 Y128.035 E0.01233
G1 X137.742 Y128.708 E0.01242
G1 X139.422 Y129.291 E0.02060
G1 X141.266 Y129.266 E0.02135
G1 X142.495 Y129.153 E0.01430
G1 X143.719 Y128.979 E0.01431
G1 X144.938 Y128.742 E0.01438
G1 X146.083 Y128.461 E0.01365
G1 X147.226 Y128.121 E0.01381
G1 X148.392 Y127.712 E0.01431
G1 X149.557 Y127.235 E0.01458
G1 X150.703 Y126.696 E0.01466
G1 X151.794 Y126.114 E0.01432
G1 X152.812 Y125.504 E0.01374
G1 X153.799 Y124.847 E0.01374
G1 X154.810 Y124.099 E0.01456
G1 X155.787 Y123.296 E0.01465
G1 X156.843 Y122.322 E0.01663
G1 X157.552 Y121.609 E0.01165
G1 X158.328 Y120.750 E0.01341
G1 X159.125 Y119.777 E0.01456
G1 X159.838 Y118.811 E0.01391
G1 X160.500 Y117.817 E0.01383
G1 X161.145 Y116.737 E0.01457
G1 X161.737 Y115.619 E0.01464
G1 X162.236 Y114.552 E0.01365
G1 X162.684 Y113.462 E0.01365
G1 X163.097 Y112.299 E0.01429
G1 X163.438 Y111.162 E0.01375
G1 X163.689 Y110.149 E0.01209
G1 X163.974 Y108.742 E0.01662
G1 X164.150 Y107.509 E0.01443
G1 X164.264 Y106.271 E0.01440
G1 X164.315 Y105.068 E0.01394
G1 X164.316 Y84.482 E0.23840
G1 X163.700 Y82.770 E0.02107
G1 X163.289 Y82.178 E0.00834
G1 X162.236 Y81.276 E0.01606
G1 X161.369 Y80.878 E0.01104
G1 X160.450 Y80.693 E0.01087
G1 X99.972 Y80.683 E0.70035
M204 S1000
M204 S500
G1 X99.255 Y80.702 E0.00831
G1 X98.552 Y80.756 E0.00816
G1 X97.859 Y80.843 E0.00808
G1 X97.178 Y80.963 E0.00801
G1 X96.482 Y81.121 E0.00826
G1 X95.795 Y81.314 E0.00827
G1 X95.118 Y81.540 E0.00827
G1 X94.453 Y81.800 E0.00827
G1 X93.802 Y82.093 E0.00827
G1 X93.166 Y82.418 E0.00827
G1 X92.548 Y82.774 E0.00827
G1 X91.947 Y83.161 E0.00827
G1 X91.367 Y83.577 E0.00828
G1 X90.788 Y84.039 E0.00857
G1 X89.897 Y84.857 E0.01400
G1 X89.280 Y85.507 E0.01038
G1 X88.794 Y86.087 E0.00876
G1 X88.363 Y86.657 E0.00827
G1 X87.962 Y87.247 E0.00827
G1 X87.581 Y87.873 E0.00848
G1 X87.235 Y88.513 E0.00842
G1 X86.738 Y89.606 E0.01390
G1 X86.435 Y90.416 E0.01002
G1 X86.217 Y91.118 E0.00851
G1 X86.039 Y91.818 E0.00836
G1 X85.896 Y92.532 E0.00843
G1 X85.790 Y93.238 E0.00827
G1 X85.720 Y93.948 E0.00827
G1 X85.685 Y94.661 E0.00827
G1 X85.686 Y95.375 E0.00827
G1 X85.723 Y96.088 E0.00827
G1 X85.795 Y96.799 E0.00827
G1 X85.903 Y97.512 E0.00835
G1 X86.046 Y98.210 E0.00826
G1 X86.216 Y98.878 E0.00798
G1 X86.420 Y99.539 E0.00801
G1 X86.693 Y100.286 E0.00921
G1 X86.954 Y100.901 E0.00773
G1 X87.244 Y101.505 E0.00776
G1 X87.625 Y102.203 E0.00921
G1 X87.968 Y102.762 E0.00759
G1 X88.340 Y103.311 E0.00767
G1 X88.860 Y103.995 E0.00996
G1 X89.652 Y104.894 E0.01387
G1 X90.244 Y105.480 E0.00965
G1 X90.788 Y105.961 E0.00841
G1 X91.328 Y106.393 E0.00801
G1 X91.934 Y106.830 E0.00864
G1 X92.539 Y107.221 E0.00835
G1 X93.129 Y107.562 E0.00789
G1 X93.737 Y107.875 E0.00792
G1 X94.436 Y108.193 E0.00890
G1 X95.530 Y108.599 E0.01351
G1 X96.415 Y108.861 E0.01069
G1 X97.127 Y109.026 E0.00847
G1 X97.846 Y109.155 E0.00846
G1 X98.540 Y109.243 E0.00810
G1 X99.238 Y109.297 E0.00811
G1 X100.605 Y109.317 E0.01583
M204 S1000
G1 X100.017 Y109.039 F10800.000
M204 S500
G1 F1200.000
G1 X99.256 Y109.019 E0.00881
G1 X98.565 Y108.965 E0.00803
G1 X97.885 Y108.879 E0.00795
G1 X97.180 Y108.753 E0.00829
G1 X96.482 Y108.591 E0.00829
G1 X95.622 Y108.337 E0.01038
G1 X94.547 Y107.937 E0.01329
G1 X93.861 Y107.626 E0.00872
G1 X93.260 Y107.316 E0.00784
G1 X92.682 Y106.981 E0.00773
G1 X92.094 Y106.602 E0.00810
G1 X91.494 Y106.170 E0.00856
G1 X90.965 Y105.746 E0.00785
G1 X90.437 Y105.279 E0.00816
G1 X89.852 Y104.699 E0.00954
G1 X89.073 Y103.815 E0.01364
G1 X88.568 Y103.151 E0.00966
G1 X88.204 Y102.614 E0.00752
G1 X87.864 Y102.061 E0.00751
G1 X87.490 Y101.375 E0.00905
G1 X87.206 Y100.783 E0.00760
G1 X86.950 Y100.181 E0.00758
G1 X86.683 Y99.447 E0.00904
G1 X86.483 Y98.799 E0.00785
G1 X86.316 Y98.145 E0.00782
G1 X86.177 Y97.459 E0.00810
G1 X86.070 Y96.760 E0.00819
G1 X86.000 Y96.064 E0.00811
G1 X85.964 Y95.365 E0.00810
G1 X85.964 Y94.665 E0.00811
G1 X85.998 Y93.965 E0.00811
G1 X86.067 Y93.269 E0.00811
G1 X86.170 Y92.576 E0.00811
G1 X86.310 Y91.883 E0.00819
G1 X86.485 Y91.197 E0.00820
G1 X86.697 Y90.510 E0.00833
G1 X86.998 Y89.708 E0.00992
G1 X87.483 Y88.641 E0.01357
G1 X87.824 Y88.009 E0.00832
G1 X88.198 Y87.395 E0.00832
G1 X88.592 Y86.816 E0.00811
G1 X89.014 Y86.257 E0.00811
G1 X89.486 Y85.696 E0.00849
G1 X90.089 Y85.058 E0.01017
G1 X90.973 Y84.247 E0.01389
G1 X91.532 Y83.802 E0.00828
G1 X92.101 Y83.393 E0.00812
G1 X92.690 Y83.014 E0.00811
G1 X93.296 Y82.664 E0.00811
G1 X93.920 Y82.346 E0.00811
G1 X94.558 Y82.058 E0.00811
G1 X95.210 Y81.803 E0.00810
G1 X95.873 Y81.581 E0.00811
G1 X96.548 Y81.392 E0.00811
G1 X97.230 Y81.237 E0.00810
G1 X97.904 Y81.118 E0.00793
G1 X98.583 Y81.033 E0.00792
G1 X99.272 Y80.980 E0.00801
G1 X99.974 Y80.961 E0.00813
G1 X160.435 Y80.972 E0.70016
M204 S1000
M204 S500
G1 X161.297 Y81.148 E0.01019
G1 X162.101 Y81.520 E0.01026
G1 X163.094 Y82.377 E0.01519
G1 X163.445 Y82.882 E0.00712
G1 X164.037 Y84.506 E0.02002
G1 X164.037 Y105.065 E0.23808
G1 X163.986 Y106.255 E0.01379
G1 X163.874 Y107.473 E0.01415
G1 X163.700 Y108.691 E0.01425
G1 X163.418 Y110.085 E0.01647
G1 X163.171 Y111.085 E0.01193
G1 X162.831 Y112.215 E0.01367
G1 X162.425 Y113.359 E0.01405
G1 X161.980 Y114.443 E0.01357
G1 X161.486 Y115.498 E0.01349
G1 X160.904 Y116.597 E0.01440
G1 X160.267 Y117.666 E0.01441
G1 X159.612 Y118.648 E0.01367
G1 X158.903 Y119.609 E0.01383
G1 X158.115 Y120.571 E0.01440
G1 X157.348 Y121.420 E0.01325
G1 X156.648 Y122.123 E0.01150
G1 X155.601 Y123.088 E0.01648
G1 X154.636 Y123.882 E0.01447
G1 X153.642 Y124.617 E0.01432
G1 X152.666 Y125.267 E0.01358
G1 X151.654 Y125.873 E0.01366
G1 X150.575 Y126.449 E0.01416
G1 X149.448 Y126.978 E0.01442
G1 X148.296 Y127.450 E0.01442
G1 X147.143 Y127.855 E0.01415
G1 X146.013 Y128.191 E0.01365
G1 X144.875 Y128.471 E0.01358
G1 X143.676 Y128.704 E0.01414
G1 X142.466 Y128.876 E0.01415
G1 X141.255 Y128.987 E0.01408
G1 X139.489 Y129.020 E0.02045
G1 X137.896 Y128.475 E0.01949
G1 X137.115 Y127.850 E0.01158
G1 X136.485 Y127.049 E0.01181
G1 X136.270 Y126.214 E0.00998
M204 S1000
G1 X136.090 Y125.513 F10800.000
M204 S500
G1 F1200.000
G1 X131.852 Y109.039 E0.19698
G1 X101.318 Y109.039 E0.35360
M204 S1000
G1 X100.730 Y108.760 F10800.000
M204 S500
G1 F1200.000
G1 X132.068 Y108.760 E0.36291
M73 Q8 S12
G1 X136.405 Y125.662 E0.20206
M73 P8 R12
M204 S1000
G1 X136.585 Y126.363 F10800.000
M204 S500
G1 F1200.000
G1 X136.722 Y126.900 E0.00642
G1 X137.302 Y127.643 E0.01091
G1 X138.051 Y128.242 E0.01111
G1 X139.554 Y128.748 E0.01837
G1 X141.243 Y128.709 E0.01957
G1 X142.437 Y128.599 E0.01388
G1 X143.626 Y128.429 E0.01391
G1 X144.812 Y128.199 E0.01399
G1 X145.937 Y127.923 E0.01342
G1 X147.061 Y127.589 E0.01357
G1 X148.200 Y127.188 E0.01399
G1 X149.333 Y126.725 E0.01417
G1 X150.447 Y126.201 E0.01425
G1 X151.514 Y125.632 E0.01400
G1 X152.514 Y125.033 E0.01351
G1 X153.485 Y124.387 E0.01350
G1 X154.468 Y123.660 E0.01416
G1 X155.416 Y122.881 E0.01421
G1 X156.452 Y121.925 E0.01633
G1 X157.143 Y121.230 E0.01135
G1 X157.902 Y120.392 E0.01309
G1 X158.681 Y119.441 E0.01424
G1 X159.382 Y118.491 E0.01367
G1 X160.033 Y117.514 E0.01359
G1 X160.663 Y116.457 E0.01425
G1 X161.235 Y115.377 E0.01416
G1 X161.726 Y114.328 E0.01342
G1 X162.166 Y113.256 E0.01341
G1 X162.565 Y112.132 E0.01382
G1 X162.903 Y111.008 E0.01359
G1 X163.147 Y110.021 E0.01178
G1 X163.426 Y108.640 E0.01631
G1 X163.598 Y107.437 E0.01408
G1 X163.708 Y106.240 E0.01391
G1 X163.758 Y105.062 E0.01365
G1 X163.759 Y84.531 E0.23776
G1 X163.190 Y82.996 E0.01896
G1 X162.898 Y82.576 E0.00593
G1 X161.965 Y81.764 E0.01432
G1 X161.224 Y81.417 E0.00947
G1 X160.421 Y81.250 E0.00951
G1 X99.976 Y81.240 E0.69997
M204 S1000
M204 S500
G1 X99.290 Y81.258 E0.00794
G1 X98.614 Y81.310 E0.00785
G1 X97.949 Y81.393 E0.00777
G1 X97.282 Y81.511 E0.00785
G1 X96.613 Y81.663 E0.00794
